;===== machine: A1 ========================
;======= liamwerk7676 ===========================
;===== date: 12122025 =====================
G392 S0 ;turn off nozzle clog detect

M400 ; wait for buffer to clear
G92 E0 ; zero the extruder
G1 E-0.8 F1800 ; retract
G1 Z{max_layer_z + 0.5} F900 ; lower z a little
G1 X0 Y{first_layer_center_no_wipe_tower[1]} F18000 ; move to safe pos
G1 X-13.0 F3000 ; move to safe pos
{if !spiral_mode && print_sequence != "by object"}
M1002 judge_flag timelapse_record_flag
M622 J1
M400 P100
M971 S11 C11 O0
M400 P100
M971 S11 C11 O0
M400 P100
M971 S11 C11 O0
M400 P100
M971 S11 C11 O0
M400 P100
M971 S11 C11 O0
M400 P100
M971 S11 C11 O0
M400 P100
M971 S11 C11 O0
M400 P100
M971 S11 C11 O0
M400 P100
M971 S11 C11 O0
M400 P100
M971 S11 C11 O0
M400 P100
M971 S11 C11 O0
M400 P100
M971 S11 C11 O0
M400 P100
M971 S11 C11 O0
M400 P100
M971 S11 C11 O0
M400 P100
M971 S11 C11 O0
M400 P100
M971 S11 C11 O0
M400 P100
M971 S11 C11 O0
M400 P100
M971 S11 C11 O0
M400 P100
M971 S11 C11 O0
M400 P100
M971 S11 C11 O0
M400 P100
M971 S11 C11 O0
M400 P100
M971 S11 C11 O0
M400 P100
M971 S11 C11 O0
M400 P100
M971 S11 C11 O0
M400 P100
M971 S11 C11 O0
M400 P100
M971 S11 C11 O0
M400 P100
M971 S11 C11 O0
M400 P100
M971 S11 C11 O0
M400 P100
M971 S11 C11 O0
M400 P100
M971 S11 C11 O0
M991 S0 P-1 ;end timelapse at safe pos
M623
{endif}

M140 S0 ; turn off bed
M106 S0 ; turn off fan
M106 P2 S0 ; turn off remote part cooling fan
M106 P3 S0 ; turn off chamber cooling fan

;G1 X27 F15000 ; wipe

; pull back filament to AMS
M620 S255
G1 X267 F15000
T255
G1 X-28.5 F18000
G1 X-48.2 F3000
G1 X-28.5 F18000
G1 X-48.2 F3000
M621 S255

M104 S0 ; turn off hotend

M400 ; wait all motion done
M17 S
M17 Z0.4 ; lower z motor current to reduce impact if there is something in the bottom
{if (max_layer_z + 50.0) < 256}
    G1 Z{max_layer_z + 50.0} F600
    G1 Z{max_layer_z +48.0}
{else}
    G1 Z256 F600
    G1 Z256
{endif}
M400 P100
M17 R ; restore z current

G90
G1 X-48 Y180 F3600

M220 S100  ; Reset feedrate magnitude
M201.2 K1.0 ; Reset acc magnitude
M73.2   R1.0 ;Reset left time magnitude
M1002 set_gcode_claim_speed_level : 0

;=====printer finish  sound=========
;Bad_Piggies_MIDIPIANO.mid
;music_long: 122.22587775
M17
M400 S1
M1006 S1
M1006 L70 M70 N99
M1006 A0 B77 C0 D77 E56 F77 N49 
M1006 A44 B5 L69 C0 D5 E56 F5 N49 
M1006 A44 B5 L69 C0 D5 E56 F5 N49 
M1006 A44 B5 L69 C0 D5 E56 F5 N49 
M1006 A44 B5 L69 C0 D5 E56 F5 N49 
M1006 A44 B4 L69 C0 D4 E56 F4 N49 
;Tick 101, Time 1 sec
M73 P0 R2
M1006 A44 B5 L69 C0 D5 E56 F5 N49 
M1006 A44 B5 L69 C0 D5 E56 F5 N49 
M1006 A44 B5 L69 C0 D5 E56 F5 N49 
M1006 A44 B5 L69 C0 D5 E56 F5 N49 
M1006 A44 B4 L69 C0 D4 E56 F4 N49 
M1006 A44 B5 L69 C0 D5 E56 F5 N49 
M1006 A44 B5 L69 C0 D5 E56 F5 N49 
M1006 A44 B4 L69 C0 D5 E56 F5 N49 
M1006 A44 B4 L69 C0 D4 E56 F4 N49 
M1006 A44 B5 L69 C0 D5 E56 F5 N49 
M1006 A44 B5 L69 C0 D5 E56 F5 N49 
M1006 A0 B1 C0 D1 E56 F1 N49 
M1006 A37 B10 L53 C25 D10 M35 E0 F10 
M1006 A37 B9 L53 C0 D9 E0 F9 
M1006 A37 B20 L53 C32 D19 M45 E0 F20 
M1006 A37 B9 L53 C20 D9 M28 E0 F9 
;Tick 203, Time 2 sec
M73 P1 R2
M1006 A37 B10 L53 C20 D1 M28 E0 F10 
M1006 A37 B19 L53 C37 D19 M69 E0 F19 
M1006 A0 B10 C25 D10 M35 E0 F10 
M1006 A0 B10 C0 D10 E0 F10 
M1006 A0 B19 C32 D19 M45 E0 F19 
M1006 A0 B10 C20 D10 M28 E0 F10 
M1006 A0 B9 C0 D9 E0 F9 
M1006 A0 B20 C37 D19 M69 E0 F20 
;Tick 310, Time 3 sec
M73 P2 R1
M1006 A0 B9 C25 D9 M35 E0 F9 
M1006 A0 B10 C25 D1 M35 E0 F10 
M1006 A0 B19 C37 D19 M69 E0 F19 
M1006 A0 B10 C20 D10 M28 E0 F10 
M1006 A0 B10 C0 D10 E0 F10 
M1006 A0 B19 C32 D19 M45 E0 F19 
M1006 A0 B10 C25 D10 M35 E0 F10 
M1006 A0 B9 C0 D9 E0 F9 
;Tick 406, Time 4 sec
M73 P3 R1
M1006 A0 B20 C32 D19 M45 E0 F20 
M1006 A0 B9 C20 D9 M28 E0 F9 
M1006 A0 B10 C20 D1 M28 E0 F10 
M1006 A0 B20 C37 D19 M69 E0 F20 
M1006 A0 B9 C25 D9 M35 E61 F9 N69 
M1006 A0 B10 C25 D1 M35 E61 F10 N69 
M1006 A0 B19 C32 D19 M45 E61 F19 N69 
;Tick 503, Time 5 sec
M73 P4 R1
M1006 A0 B10 C20 D10 M28 E61 F10 N69 
M1006 A0 B10 C0 D10 E61 F10 N69 
M1006 A0 B9 C32 D9 M45 E61 F9 N69 
M1006 A0 B10 C32 D10 M45 E59 F10 N69 
M1006 A0 B10 C25 D10 M35 E61 F10 N69 
M1006 A0 B9 C0 D9 E0 F9 
M1006 A0 B10 C32 D10 M45 E59 F10 N69 
M1006 A0 B10 C32 D9 M45 E0 F10 
M1006 A0 B9 C20 D9 M28 E57 F9 N56 
M1006 A0 B10 C20 D1 M28 E57 F1 N56 
;Tick 600, Time 6 sec
M73 P4 R1
M1006 A0 B10 C32 D10 M45 E56 F10 N49 
M1006 A0 B9 C32 D9 M45 E0 F9 
M1006 A0 B10 C28 D10 M21 E59 F10 N69 
M1006 A0 B10 C0 D10 E57 F10 N56 
M1006 A0 B9 C35 D9 M59 E56 F9 N49 
M1006 A0 B10 C35 D10 M59 E54 F10 N69 
M1006 A0 B10 C23 D10 M31 E52 F10 N69 
M1006 A0 B9 C0 D9 E0 F9 
M1006 A0 B10 C32 D10 M45 E54 F10 N69 
M1006 A0 B10 C32 D9 M45 E0 F10 
M1006 A0 B9 C28 D9 M21 E56 F9 N49 
;Tick 706, Time 7 sec
M73 P5 R1
M1006 A0 B10 C28 D1 M21 E56 F10 N49 
M1006 A0 B19 C35 D19 M59 E56 F19 N49 
M1006 A0 B10 C23 D10 M31 E56 F10 N49 
M1006 A0 B10 C0 D10 E56 F10 N49 
M1006 A0 B19 C35 D19 M59 E56 F19 N49 
M1006 A0 B10 C23 D10 M31 E59 F10 N69 
M1006 A0 B10 C0 D10 E59 F10 N69 
M1006 A0 B19 C30 D19 M10 E59 F19 N69 
;Tick 813, Time 8 sec
M73 P6 R1
M1006 A0 B10 C18 D10 M24 E59 F10 N69 
M1006 A0 B9 C0 D9 E59 F9 N69 
M1006 A0 B10 C35 D10 M59 E59 F10 N69 
M1006 A0 B10 C35 D9 M59 E57 F10 N56 
M1006 A0 B9 C23 D9 M31 E56 F9 N49 
M1006 A0 B10 C23 D1 M31 E56 F10 N49 
M1006 A0 B19 C30 D19 M10 E54 F19 N69 
M1006 A0 B10 C18 D10 M24 E52 F10 N69 
;Tick 900, Time 9 sec
M73 P7 R1
M1006 A0 B10 C0 D10 E52 F9 N69 
M1006 A0 B19 C35 D19 M59 E54 F19 N69 
M1006 A0 B10 C21 D10 M42 E56 F10 N49 
M1006 A0 B9 C0 D9 E52 F9 N69 
M1006 A0 B10 C37 D10 M69 E49 F10 N31 
M1006 A0 B10 C37 D9 M69 E52 F10 N69 
M1006 A0 B9 C16 D9 M35 E56 F9 N49 
M1006 A0 B10 C16 D1 M35 E56 F1 N49 
M1006 A0 B10 C37 D10 M69 E54 F10 N69 
M1006 A0 B9 C37 D9 M69 E0 F9 
;Tick 1006, Time 10 sec
M73 P8 R1
M1006 A0 B10 C20 D10 M28 E52 F10 N69 
M1006 A0 B10 C0 D10 E52 F10 N69 
M1006 A0 B19 C36 D19 M69 E52 F19 N69 
M1006 A0 B10 C15 D10 M38 E51 F10 N69 
M1006 A0 B10 C0 D10 E51 F10 N69 
M1006 A0 B19 C36 D19 M69 E51 F19 N69 
M1006 A0 B10 C25 D10 M35 E61 F10 N69 
M1006 A0 B9 C0 D9 E61 F9 N69 
;Tick 1103, Time 11 sec
M73 P8 R1
M1006 A0 B20 C37 D19 M69 E61 F20 N69 
M1006 A0 B9 C20 D9 M28 E61 F9 N69 
M1006 A0 B10 C20 D1 M28 E61 F10 N69 
M1006 A0 B10 C32 D10 M45 E61 F10 N69 
M1006 A0 B9 C32 D9 M45 E59 F9 N69 
M1006 A0 B10 C25 D10 M35 E61 F10 N69 
M1006 A0 B10 C0 D10 E0 F10 
M1006 A0 B9 C32 D9 M45 E59 F9 N69 
M1006 A0 B10 C32 D10 M45 E59 F1 N69 
;Tick 1200, Time 12 sec
M73 P9 R1
M1006 A0 B10 C20 D10 M28 E57 F10 N56 
M1006 A0 B9 C0 D9 E0 F9 
M1006 A0 B10 C37 D10 M69 E56 F10 N49 
M1006 A0 B10 C37 D9 M69 E0 F10 
M1006 A0 B9 C28 D9 M21 E59 F9 N69 
M1006 A0 B10 C28 D1 M21 E57 F10 N56 
M1006 A0 B10 C35 D10 M59 E56 F10 N49 
M1006 A0 B9 C35 D9 M59 E54 F9 N69 
M1006 A0 B10 C23 D10 M31 E52 F10 N69 
M1006 A0 B10 C0 D10 E0 F10 
M1006 A0 B9 C32 D9 M45 E54 F9 N69 
;Tick 1306, Time 13 sec
M73 P10 R1
M1006 A0 B10 C32 D10 M45 E54 F1 N69 
M1006 A0 B10 C28 D10 M21 E56 F10 N49 
M1006 A0 B9 C0 D9 E56 F9 N49 
M1006 A0 B20 C32 D19 M45 E56 F20 N49 
M1006 A0 B10 C23 D10 M31 E56 F10 N49 
M1006 A0 B9 C0 D9 E56 F9 N49 
M1006 A0 B20 C32 D19 M45 E56 F19 N49 
M1006 A0 B9 C23 D9 M31 E59 F9 N69 
;Tick 1403, Time 14 sec
M73 P11 R1
M1006 A0 B10 C23 D1 M31 E59 F10 N69 
M1006 A0 B19 C30 D19 M10 E59 F19 N69 
M1006 A0 B10 C18 D10 M24 E59 F10 N69 
M1006 A0 B10 C0 D10 E59 F10 N69 
M1006 A0 B9 C35 D9 M59 E59 F9 N69 
M1006 A0 B10 C35 D10 M59 E57 F10 N56 
M1006 A0 B10 C23 D10 M31 E56 F10 N49 
M1006 A0 B9 C0 D9 E56 F9 N49 
M1006 A0 B20 C30 D19 M10 E54 F19 N69 
;Tick 1510, Time 15 sec
M73 P12 R1
M1006 A0 B9 C18 D9 M24 E52 F9 N69 
M1006 A0 B10 C18 D1 M24 E52 F10 N69 
M1006 A0 B19 C35 D19 M59 E54 F19 N69 
M1006 A0 B10 C21 D10 M42 E56 F10 N49 
M1006 A0 B10 C0 D10 E52 F10 N69 
M1006 A0 B9 C33 D9 M45 E49 F9 N31 
M1006 A0 B10 C33 D10 M45 E52 F10 N69 
M1006 A0 B10 C16 D10 M35 E56 F10 N49 
M1006 A0 B9 C0 D9 E0 F9 
;Tick 1606, Time 16 sec
M73 P13 R1
M1006 A0 B10 C37 D10 M69 E54 F10 N69 
M1006 A0 B10 C37 D9 M69 E0 F10 
M1006 A0 B9 C20 D9 M28 E52 F9 N69 
M1006 A0 B10 C20 D1 M28 E52 F10 N69 
M1006 A0 B20 C32 D19 M45 E52 F20 N69 
M1006 A0 B9 C15 D9 M38 E51 F9 N69 
M1006 A0 B10 C15 D1 M38 E51 F10 N69 
M1006 A0 B19 C36 D19 M69 E51 F19 N69 
;Tick 1703, Time 17 sec
M73 P13 R1
M1006 A49 B10 L69 C28 D10 M21 E51 F1 N69 
M1006 A49 B10 L69 C0 D10 E0 F10 
M1006 A49 B9 L69 C37 D9 M69 E49 F9 N31 
M1006 A49 B10 L69 C37 D10 M69 E51 F10 N69 
M1006 A49 B10 L69 C23 D10 M31 E52 F10 N69 
M1006 A49 B9 L69 C0 D9 E0 F9 
M1006 A49 B10 L69 C40 D10 M69 E49 F10 N31 
M1006 A49 B10 L69 C40 D9 M69 E0 F10 
M1006 A49 B9 L69 C28 D9 M21 E54 F9 N69 
M1006 A49 B10 L69 C28 D1 M21 E54 F10 N69 
;Tick 1800, Time 18 sec
M73 P14 R1
M1006 A49 B19 L69 C40 D19 M69 E52 F19 N69 
M1006 A49 B10 L69 C23 D10 M31 E51 F10 N69 
M1006 A49 B10 L69 C0 D10 E51 F9 N69 
M1006 A49 B19 L69 C40 D19 M69 E49 F19 N31 
M1006 A54 B10 L52 C21 D10 M42 E47 F10 N45 
M1006 A54 B9 L52 C0 D9 E47 F9 N45 
M1006 A54 B10 L52 C37 D10 M69 E47 F10 N45 
M1006 A54 B10 L52 C37 D9 M69 E45 F10 N45 
M1006 A54 B9 L52 C28 D9 M21 E44 F9 N38 
;Tick 1906, Time 19 sec
M73 P15 R1
M1006 A54 B10 L52 C28 D1 M21 E44 F1 N38 
M1006 A54 B10 L52 C37 D10 M69 E45 F10 N45 
M1006 A54 B9 L52 C37 D9 M69 E0 F9 
M1006 A54 B10 L52 C21 D10 M42 E47 F10 N45 
M1006 A54 B10 L52 C0 D10 E47 F10 N45 
M1006 A54 B19 L52 C42 D19 M69 E47 F19 N45 
M1006 A54 B10 L52 C28 D10 M21 E42 F10 N38 
M1006 A54 B10 L52 C0 D10 E42 F10 N38 
M1006 A54 B19 L52 C37 D19 M69 E42 F19 N38 
;Tick 2013, Time 20 sec
M73 P16 R1
M1006 A47 B10 L69 C18 D10 M24 E0 F10 
M1006 A47 B9 L69 C0 D9 E0 F9 
M1006 A47 B10 L69 C30 D10 M10 E39 F10 N52 
M1006 A47 B10 L69 C30 D9 M10 E40 F10 N35 
M1006 A47 B9 L69 C13 D9 M69 E42 F9 N38 
M1006 A47 B10 L69 C13 D1 M69 E42 F1 N38 
M1006 A47 B10 L69 C35 D10 M59 E39 F10 N52 
M1006 A47 B9 L69 C35 D9 M59 E0 F9 
M1006 A47 B10 L69 C18 D10 M24 E44 F10 N38 
;Tick 2100, Time 21 sec
M73 P17 R1
M1006 A47 B10 L69 C0 D10 E44 F9 N38 
M1006 A47 B19 L69 C35 D19 M59 E42 F19 N38 
M1006 A47 B10 L69 C13 D10 M69 E40 F10 N35 
M1006 A47 B9 L69 C0 D9 E40 F9 N35 
M1006 A47 B20 L69 C35 D19 M59 E39 F19 N52 
M1006 A45 B9 L69 C21 D9 M42 E40 F9 N35 
M1006 A45 B10 L69 C21 D1 M42 E40 F10 N35 
M1006 A45 B19 L69 C33 D19 M45 E0 F19 
;Tick 2206, Time 22 sec
M73 P17 R1
M1006 A45 B10 L69 C28 D10 M21 E40 F10 N35 
M1006 A45 B10 L69 C0 D10 E40 F9 N35 
M1006 A45 B19 L69 C37 D19 M69 E0 F19 
M1006 A48 B10 L69 C20 D10 M28 E39 F10 N52 
M1006 A48 B10 L69 C0 D10 E39 F10 N52 
M1006 A48 B19 L69 C32 D19 M45 E39 F19 N52 
M1006 A48 B4 L69 C27 D4 M28 E37 F4 N31 
M1006 A48 B4 L69 C27 D4 M28 E39 F4 N52 
M1006 A48 B2 L69 C27 D2 M28 E41 F2 N38 
M1006 A48 B2 L69 C0 D2 E41 F2 N38 
M1006 A48 B5 L69 C0 D5 E42 F4 N38 
;Tick 2301, Time 23 sec
M73 P18 R1
M1006 A48 B2 L69 C0 D2 E44 F2 N38 
M1006 A48 B2 L69 C32 D2 M45 E44 F2 N38 
M1006 A48 B4 L69 C32 D4 M45 E46 F4 N45 
M1006 A48 B4 L69 C32 D4 M45 E48 F4 N31 
M1006 A48 B5 L69 C32 D5 M45 E49 F4 N31 
M1006 A48 B4 L69 C32 D4 M45 E51 F4 N69 
M1006 A0 B1 C0 D1 E0 F1 
M1006 A49 B9 L69 C28 D9 M21 E52 F9 N69 
M1006 A49 B10 L69 C28 D1 M21 E52 F10 N69 
M1006 A49 B10 L69 C37 D10 M69 E49 F10 N31 
M1006 A49 B9 L69 C37 D9 M69 E51 F9 N69 
M1006 A49 B10 L69 C23 D10 M31 E52 F10 N69 
M1006 A49 B10 L69 C0 D10 E0 F10 
M1006 A49 B9 L69 C37 D9 M69 E49 F9 N31 
M1006 A49 B10 L69 C37 D10 M69 E49 F1 N31 
;Tick 2400, Time 24 sec
M73 P19 R1
M1006 A49 B10 L69 C28 D10 M21 E54 F10 N69 
M1006 A49 B9 L69 C0 D9 E54 F9 N69 
M1006 A49 B20 L69 C37 D19 M69 E52 F19 N69 
M1006 A49 B9 L69 C23 D9 M31 E51 F9 N69 
M1006 A49 B10 L69 C23 D1 M31 E51 F10 N69 
M1006 A49 B19 L69 C37 D19 M69 E49 F19 N31 
M1006 A49 B10 L69 C21 D10 M42 E47 F10 N45 
M1006 A49 B10 L69 C0 D10 E45 F10 N45 
M1006 A49 B9 L69 C42 D9 M69 E44 F9 N38 
;Tick 2506, Time 25 sec
M73 P20 R1
M1006 A49 B10 L69 C42 D10 M69 E45 F10 N45 
M1006 A49 B10 L69 C28 D10 M21 E47 F10 N45 
M1006 A49 B9 L69 C0 D9 E0 F9 
M1006 A49 B10 L69 C42 D10 M69 E45 F10 N45 
M1006 A49 B10 L69 C42 D9 M69 E0 F10 
M1006 A49 B10 L69 C21 D10 M42 E44 F10 N38 
M1006 A49 B9 L69 C0 D9 E44 F9 N38 
M1006 A49 B10 L69 C37 D10 M69 E42 F10 N38 
M1006 A49 B10 L69 C37 D9 M69 E0 F10 
M1006 A49 B9 L69 C28 D9 M21 E40 F9 N35 
;Tick 2603, Time 26 sec
M73 P21 R1
M1006 A49 B10 L69 C28 D1 M21 E40 F10 N35 
M1006 A49 B19 L69 C42 D19 M69 E40 F19 N35 
M1006 A42 B10 L66 C18 D10 M24 E40 F1 N35 
M1006 A42 B10 L66 C0 D10 E0 F10 
M1006 A42 B9 L66 C35 D9 M59 E39 F9 N52 
M1006 A42 B10 L66 C35 D10 M59 E40 F10 N35 
M1006 A42 B10 L66 C13 D10 M69 E42 F10 N38 
M1006 A42 B9 L66 C0 D9 E0 F9 
M1006 A42 B10 L66 C30 D10 M10 E39 F10 N52 
;Tick 2700, Time 27 sec
M73 P22 R1
M1006 A42 B10 L66 C30 D9 M10 E0 F10 
M1006 A42 B9 L66 C18 D9 M24 E44 F9 N38 
M1006 A42 B10 L66 C18 D1 M24 E44 F10 N38 
M1006 A42 B19 L66 C30 D19 M10 E42 F19 N38 
M1006 A42 B10 L66 C13 D10 M69 E40 F10 N35 
M1006 A42 B10 L66 C0 D10 E40 F9 N35 
M1006 A42 B19 L66 C35 D19 M59 E39 F19 N52 
M1006 A51 B10 L69 C39 D10 M69 E39 F10 N52 
M1006 A51 B9 L69 C39 D9 M69 E0 F9 
;Tick 2806, Time 28 sec
M73 P22 R1
M1006 A51 B10 L69 C27 D10 M28 E39 F10 N52 
M1006 A51 B10 L69 C0 D10 E40 F10 N35 
M1006 A51 B9 L69 C40 D9 M69 E39 F9 N52 
M1006 A51 B10 L69 C40 D10 M69 E39 F1 N52 
M1006 A51 B10 L69 C24 D10 M35 E39 F10 N52 
M1006 A51 B10 L69 C0 D10 E40 F10 N35 
M1006 A51 B9 L69 C44 D9 M66 E39 F9 N52 
M1006 A51 B10 L69 C44 D10 M66 E39 F1 N52 
M1006 A51 B10 L69 C27 D10 M28 E39 F10 N52 
M1006 A51 B9 L69 C0 D9 E40 F9 N35 
;Tick 2903, Time 29 sec
M73 P23 R1
M1006 A51 B10 L69 C45 D10 M55 E39 F10 N52 
M1006 A51 B10 L69 C45 D9 M55 E0 F10 
M1006 A51 B9 L69 C24 D9 M35 E39 F9 N52 
M1006 A51 B10 L69 C24 D1 M35 E40 F10 N35 
M1006 A51 B10 L69 C44 D10 M66 E39 F10 N52 
M1006 A51 B9 L69 C44 D9 M66 E40 F9 N35 
M1006 A51 B10 L69 C40 D10 M69 E39 F10 N52 
M1006 A51 B10 L69 C40 D9 M69 E40 F10 N35 
M1006 A51 B6 L69 C44 D6 M66 E39 F6 N52 
M1006 A51 B3 L69 C44 D3 M66 E39 F3 N52 
M1006 A51 B10 L69 C44 D10 M66 E40 F10 N35 
;Tick 3000, Time 30 sec
M73 P24 R1
M1006 A51 B10 L69 C40 D10 M69 E39 F10 N52 
M1006 A51 B9 L69 C40 D9 M69 E40 F9 N35 
M1006 A51 B10 L69 C39 D10 M69 E39 F10 N52 
M1006 A51 B10 L69 C39 D9 M69 E40 F10 N35 
M1006 A51 B9 L69 C40 D9 M69 E39 F9 N52 
M1006 A51 B10 L69 C40 D10 M69 E40 F10 N35 
M1006 A51 B10 L69 C39 D10 M69 E39 F10 N52 
M1006 A51 B9 L69 C39 D9 M69 E40 F9 N35 
M1006 A51 B10 L69 C40 D10 M69 E39 F10 N52 
M1006 A51 B10 L69 C40 D9 M69 E40 F10 N35 
M1006 A51 B9 L69 C56 D9 M69 E39 F9 N52 
;Tick 3106, Time 31 sec
M73 P25 R1
M1006 A51 B10 L69 C56 D10 M69 E45 F10 N45 
M1006 A51 B10 L69 C56 D10 M69 E44 F10 N38 
M1006 A51 B9 L69 C56 D9 M69 E45 F9 N45 
M1006 A51 B10 L69 C56 D10 M69 E39 F10 N52 
M1006 A51 B10 L69 C56 D10 M69 E45 F10 N45 
M1006 A51 B10 L69 C56 D10 M69 E39 F10 N52 
M1006 A51 B9 L69 C56 D9 M69 E45 F9 N45 
M1006 A51 B5 L69 C44 D5 M66 E32 F4 N21 
M1006 A51 B4 L69 C44 D4 M66 E34 F4 N24 
M1006 A51 B1 L69 C44 D1 M66 E36 F1 N31 
M1006 A51 B3 L69 C40 D3 M69 E36 F3 N31 
M1006 A51 B1 L69 C40 D1 M69 E0 F1 
M1006 A51 B4 L69 C40 D4 M69 E37 F4 N31 
M1006 A51 B2 L69 C40 D2 M69 E39 F2 N52 
M1006 A51 B3 L69 C44 D3 M66 E39 F2 N52 
M1006 A51 B5 L69 C44 D5 M66 E41 F5 N38 
;Tick 3202, Time 32 sec
M73 P26 R1
M1006 A51 B1 L69 C44 D1 M66 E42 F1 N38 
M1006 A51 B3 L69 C45 D3 M55 E42 F3 N38 
M1006 A51 B4 L69 C45 D4 M55 E44 F4 N38 
M1006 A51 B3 L69 C45 D3 M55 E46 F3 N45 
M1006 A51 B2 L69 C44 D2 M66 E46 F2 N45 
M1006 A51 B5 L69 C44 D5 M66 E48 F4 N31 
M1006 A51 B3 L69 C44 D3 M66 E49 F3 N31 
M1006 A51 B1 L69 C40 D1 M69 E49 F1 N31 
M1006 A51 B5 L69 C40 D5 M69 E51 F5 N69 
M1006 A51 B3 L69 C40 D3 M69 E53 F3 N69 
M1006 A51 B1 L69 C39 D1 M69 E53 F1 N69 
M1006 A51 B5 L69 C39 D5 M69 E54 F4 N69 
M1006 A51 B4 L69 C39 D4 M69 E56 F4 N49 
M1006 A51 B5 L69 C40 D5 M69 E58 F5 N61 
M1006 A51 B5 L69 C40 D5 M69 E60 F4 N69 
M1006 A0 B9 C4 D9 M52 E73 F9 
M1006 A0 B10 C4 D10 M52 E73 F10 
M1006 A0 B19 C37 D19 M69 E73 F19 
M1006 A0 B10 C20 D10 M28 E73 F10 
;Tick 3300, Time 33 sec
M73 P26 R1
M1006 A0 B10 C0 D10 E73 F10 
M1006 A0 B9 C37 D9 M69 E73 F9 
M1006 A0 B10 C37 D10 M69 E71 F10 N69 
M1006 A0 B10 C25 D10 M35 E73 F10 
M1006 A0 B9 C0 D9 E0 F9 
M1006 A0 B10 C32 D10 M45 E71 F10 N69 
M1006 A0 B10 C32 D9 M45 E0 F10 
M1006 A0 B9 C20 D9 M28 E69 F9 N69 
M1006 A0 B10 C20 D1 M28 E69 F1 N69 
M1006 A0 B10 C37 D10 M69 E56 F10 N49 
M1006 A0 B9 C37 D9 M69 E0 F9 
;Tick 3406, Time 34 sec
M73 P27 R1
M1006 A0 B10 C28 D10 M21 E59 F10 N69 
M1006 A0 B10 C0 D10 E69 F10 N69 
M1006 A0 B9 C35 D9 M59 E68 F9 N69 
M1006 A0 B10 C35 D10 M59 E66 F10 N69 
M1006 A0 B10 C23 D10 M31 E64 F10 N69 
M1006 A0 B10 C0 D10 E0 F10 
M1006 A0 B9 C35 D9 M59 E66 F9 N69 
M1006 A0 B10 C35 D10 M59 E66 F1 N69 
M1006 A0 B10 C28 D10 M21 E68 F10 N69 
M1006 A0 B9 C0 D9 E68 F9 N69 
;Tick 3503, Time 35 sec
M73 P28 R1
M1006 A0 B20 C32 D19 M45 E68 F20 N69 
M1006 A0 B9 C23 D9 M31 E68 F9 N69 
M1006 A0 B10 C23 D1 M31 E68 F10 N69 
M1006 A0 B19 C35 D19 M59 E68 F19 N69 
M1006 A0 B10 C23 D10 M31 E71 F10 N69 
M1006 A0 B10 C0 D10 E71 F10 N69 
M1006 A0 B19 C35 D19 M59 E71 F19 N69 
;Tick 3600, Time 36 sec
M73 P29 R1
M1006 A0 B10 C18 D10 M24 E71 F10 N69 
M1006 A0 B9 C0 D9 E71 F9 N69 
M1006 A0 B10 C35 D10 M59 E71 F10 N69 
M1006 A0 B10 C35 D9 M59 E57 F10 N56 
M1006 A0 B9 C23 D9 M31 E68 F9 N69 
M1006 A0 B10 C23 D1 M31 E68 F10 N69 
M1006 A0 B19 C30 D19 M10 E66 F19 N69 
M1006 A0 B10 C18 D10 M24 E64 F10 N69 
M1006 A0 B10 C0 D10 E64 F9 N69 
M1006 A0 B19 C35 D19 M59 E66 F19 N69 
;Tick 3716, Time 37 sec
M73 P30 R1
M1006 A0 B10 C21 D10 M42 E56 F10 N49 
M1006 A0 B9 C0 D9 E64 F9 N69 
M1006 A0 B10 C33 D10 M45 E61 F10 N69 
M1006 A0 B10 C33 D9 M45 E64 F10 N69 
M1006 A0 B10 C16 D10 M35 E56 F10 N49 
M1006 A0 B9 C0 D9 E0 F9 
M1006 A0 B10 C33 D10 M45 E66 F10 N69 
M1006 A0 B10 C33 D9 M45 E0 F10 
M1006 A0 B9 C20 D9 M28 E64 F9 N69 
;Tick 3803, Time 38 sec
M73 P31 R1
M1006 A0 B10 C20 D1 M28 E64 F10 N69 
M1006 A0 B19 C36 D19 M69 E64 F19 N69 
M1006 A0 B10 C15 D10 M38 E63 F10 N69 
M1006 A0 B10 C0 D10 E63 F10 N69 
M1006 A0 B19 C32 D19 M45 E63 F19 N69 
M1006 A0 B10 C25 D10 M35 E73 F10 
M1006 A0 B9 C0 D9 E73 F9 
M1006 A0 B20 C32 D19 M45 E73 F20 
;Tick 3910, Time 39 sec
M73 P31 R1
M1006 A0 B9 C20 D9 M28 E73 F9 
M1006 A0 B10 C20 D1 M28 E73 F10 
M1006 A0 B10 C32 D10 M45 E73 F10 
M1006 A0 B9 C32 D9 M45 E59 F9 N69 
M1006 A0 B10 C25 D10 M35 E73 F10 
M1006 A0 B10 C0 D10 E0 F10 
M1006 A0 B9 C32 D9 M45 E59 F9 N69 
M1006 A0 B10 C32 D10 M45 E59 F1 N69 
M1006 A0 B10 C20 D10 M28 E57 F10 N56 
M1006 A0 B9 C0 D9 E0 F9 
;Tick 4006, Time 40 sec
M73 P32 R1
M1006 A0 B10 C37 D10 M69 E56 F10 N49 
M1006 A0 B10 C37 D9 M69 E0 F10 
M1006 A0 B9 C28 D9 M21 E59 F9 N69 
M1006 A0 B10 C28 D1 M21 E57 F10 N56 
M1006 A0 B10 C35 D10 M59 E68 F10 N69 
M1006 A0 B10 C35 D9 M59 E66 F10 N69 
M1006 A0 B9 C23 D9 M31 E52 F9 N69 
M1006 A0 B10 C23 D1 M31 E52 F1 N69 
M1006 A0 B10 C32 D10 M45 E66 F10 N69 
M1006 A0 B9 C32 D9 M45 E0 F9 
;Tick 4103, Time 41 sec
M73 P33 R1
M1006 A0 B10 C28 D10 M21 E68 F10 N69 
M1006 A0 B10 C0 D10 E68 F10 N69 
M1006 A0 B19 C35 D19 M59 E68 F19 N69 
M1006 A0 B10 C23 D10 M31 E68 F10 N69 
M1006 A0 B9 C0 D9 E68 F9 N69 
M1006 A0 B20 C32 D19 M45 E68 F19 N69 
M1006 A0 B9 C23 D9 M31 E71 F9 N69 
M1006 A0 B10 C23 D1 M31 E71 F10 N69 
;Tick 4200, Time 42 sec
M73 P34 R1
M1006 A0 B19 C35 D19 M59 E71 F19 N69 
M1006 A0 B10 C18 D10 M24 E71 F10 N69 
M1006 A0 B10 C0 D10 E71 F10 N69 
M1006 A0 B9 C35 D9 M59 E71 F9 N69 
M1006 A0 B10 C35 D10 M59 E69 F10 N69 
M1006 A0 B10 C23 D10 M31 E68 F10 N69 
M1006 A0 B9 C0 D9 E68 F9 N69 
M1006 A0 B20 C35 D19 M59 E66 F19 N69 
M1006 A0 B9 C18 D9 M24 E64 F9 N69 
;Tick 4306, Time 43 sec
M73 P35 R1
M1006 A0 B10 C18 D1 M24 E64 F10 N69 
M1006 A0 B19 C35 D19 M59 E66 F19 N69 
M1006 A0 B10 C21 D10 M42 E56 F10 N49 
M1006 A0 B10 C0 D10 E52 F10 N69 
M1006 A0 B10 C33 D10 M45 E61 F10 N69 
M1006 A0 B9 C33 D9 M45 E64 F9 N69 
M1006 A0 B10 C16 D10 M35 E56 F10 N49 
M1006 A0 B10 C0 D10 E0 F10 
M1006 A0 B9 C37 D9 M69 E66 F9 N69 
;Tick 4403, Time 44 sec
M73 P35 R1
M1006 A0 B10 C37 D10 M69 E66 F1 N69 
M1006 A0 B10 C20 D10 M28 E64 F10 N69 
M1006 A0 B9 C0 D9 E64 F9 N69 
M1006 A0 B20 C36 D19 M69 E64 F20 N69 
M1006 A0 B9 C15 D9 M38 E63 F9 N69 
M1006 A0 B10 C15 D1 M38 E63 F10 N69 
M1006 A0 B19 C36 D19 M69 E63 F19 N69 
M1006 A49 B10 L69 C28 D10 M21 E63 F1 N69 
;Tick 4500, Time 45 sec
M73 P36 R1
M1006 A49 B10 L69 C0 D10 E0 F10 
M1006 A49 B9 L69 C37 D9 M69 E61 F9 N69 
M1006 A49 B10 L69 C37 D10 M69 E51 F10 N69 
M1006 A49 B10 L69 C23 D10 M31 E52 F10 N69 
M1006 A49 B9 L69 C0 D9 E0 F9 
M1006 A49 B10 L69 C40 D10 M69 E61 F10 N69 
M1006 A49 B10 L69 C40 D9 M69 E0 F10 
M1006 A49 B9 L69 C28 D9 M21 E66 F9 N69 
M1006 A49 B10 L69 C28 D1 M21 E66 F10 N69 
M1006 A49 B19 L69 C37 D19 M69 E52 F19 N69 
;Tick 4606, Time 46 sec
M73 P37 R1
M1006 A49 B10 L69 C23 D10 M31 E63 F10 N69 
M1006 A49 B10 L69 C0 D10 E63 F9 N69 
M1006 A49 B19 L69 C37 D19 M69 E61 F19 N69 
M1006 A49 B10 L69 C21 D10 M42 E59 F10 N69 
M1006 A49 B10 L69 C0 D10 E59 F10 N69 
M1006 A49 B9 L69 C42 D9 M69 E59 F9 N69 
M1006 A49 B10 L69 C42 D10 M69 E57 F10 N56 
M1006 A49 B10 L69 C28 D10 M21 E44 F10 N38 
M1006 A49 B9 L69 C0 D9 E0 F9 
;Tick 4703, Time 47 sec
M73 P38 R1
M1006 A49 B10 L69 C37 D10 M69 E57 F10 N56 
M1006 A49 B10 L69 C37 D9 M69 E0 F10 
M1006 A49 B9 L69 C21 D9 M42 E47 F9 N45 
M1006 A49 B10 L69 C21 D1 M42 E47 F10 N45 
M1006 A49 B19 L69 C42 D19 M69 E47 F19 N45 
M1006 A49 B10 L69 C28 D10 M21 E54 F10 N69 
M1006 A49 B10 L69 C0 D10 E54 F10 N69 
M1006 A49 B19 L69 C42 D19 M69 E54 F19 N69 
;Tick 4800, Time 48 sec
M73 P39 R1
M1006 A42 B10 L66 C18 D10 M24 E0 F10 
M1006 A42 B9 L66 C0 D9 E0 F9 
M1006 A42 B10 L66 C35 D10 M59 E39 F10 N52 
M1006 A42 B10 L66 C35 D9 M59 E40 F10 N35 
M1006 A42 B9 L66 C13 D9 M69 E54 F9 N69 
M1006 A42 B10 L66 C13 D1 M69 E54 F1 N69 
M1006 A42 B10 L66 C30 D10 M10 E39 F10 N52 
M1006 A42 B9 L66 C30 D9 M10 E0 F9 
M1006 A42 B10 L66 C18 D10 M24 E44 F10 N38 
M1006 A42 B10 L66 C0 D10 E44 F9 N38 
M1006 A42 B19 L66 C35 D19 M59 E42 F19 N38 
;Tick 4916, Time 49 sec
M73 P40 R1
M1006 A42 B10 L66 C13 D10 M69 E52 F10 N69 
M1006 A42 B9 L66 C0 D9 E52 F9 N69 
M1006 A42 B20 L66 C30 D19 M10 E51 F19 N69 
M1006 A45 B10 L69 C21 D10 M42 E52 F10 N69 
M1006 A45 B9 L69 C0 D9 E52 F9 N69 
M1006 A45 B20 L69 C33 D19 M45 E0 F20 
M1006 A45 B9 L69 C28 D9 M21 E40 F9 N35 
;Tick 5003, Time 50 sec
M73 P40 R1
M1006 A45 B10 L69 C28 D1 M21 E40 F10 N35 
M1006 A45 B19 L69 C33 D19 M45 E0 F19 
M1006 A44 B10 L69 C20 D10 M28 E51 F10 N69 
M1006 A44 B10 L69 C0 D10 E51 F10 N69 
M1006 A44 B19 L69 C36 D19 M69 E51 F19 N69 
M1006 A44 B4 L69 C27 D4 M28 E37 F4 N31 
M1006 A44 B4 L69 C27 D4 M28 E39 F4 N52 
M1006 A44 B2 L69 C27 D2 M28 E53 F2 N69 
M1006 A44 B2 L69 C0 D2 E53 F2 N69 
M1006 A44 B5 L69 C0 D5 E42 F4 N38 
M1006 A44 B2 L69 C0 D2 E44 F2 N38 
M1006 A44 B2 L69 C36 D2 M69 E44 F2 N38 
M1006 A44 B4 L69 C36 D4 M69 E46 F4 N45 
M1006 A44 B4 L69 C36 D4 M69 E48 F4 N31 
;Tick 5100, Time 51 sec
M73 P41 R1
M1006 A44 B5 L69 C36 D5 M69 E49 F4 N31 
M1006 A44 B4 L69 C36 D4 M69 E51 F4 N69 
M1006 A0 B1 C0 D1 E0 F1 
M1006 A49 B9 L69 C28 D9 M21 E64 F9 N69 
M1006 A49 B10 L69 C28 D1 M21 E64 F10 N69 
M1006 A49 B10 L69 C40 D10 M69 E61 F10 N69 
M1006 A49 B9 L69 C40 D9 M69 E51 F9 N69 
M1006 A49 B10 L69 C23 D10 M31 E52 F10 N69 
M1006 A49 B10 L69 C0 D10 E0 F10 
M1006 A49 B9 L69 C40 D9 M69 E61 F9 N69 
M1006 A49 B10 L69 C40 D10 M69 E61 F1 N69 
M1006 A49 B10 L69 C28 D10 M21 E66 F10 N69 
M1006 A49 B9 L69 C0 D9 E66 F9 N69 
;Tick 5206, Time 52 sec
M73 P42 R1
M1006 A49 B20 L69 C40 D19 M69 E52 F19 N69 
M1006 A49 B9 L69 C23 D9 M31 E63 F9 N69 
M1006 A49 B10 L69 C23 D1 M31 E63 F10 N69 
M1006 A49 B20 L69 C40 D19 M69 E61 F19 N69 
M1006 A49 B9 L69 C21 D9 M42 E59 F9 N69 
M1006 A49 B10 L69 C21 D1 M42 E57 F10 N56 
M1006 A49 B10 L69 C37 D10 M69 E56 F10 N49 
M1006 A49 B9 L69 C37 D9 M69 E57 F9 N56 
;Tick 5303, Time 53 sec
M73 P43 R1
M1006 A49 B10 L69 C28 D10 M21 E59 F10 N69 
M1006 A49 B10 L69 C0 D10 E0 F10 
M1006 A49 B9 L69 C37 D9 M69 E57 F9 N56 
M1006 A49 B10 L69 C37 D10 M69 E57 F1 N56 
M1006 A49 B10 L69 C21 D10 M42 E56 F10 N49 
M1006 A49 B9 L69 C0 D9 E56 F9 N49 
M1006 A49 B10 L69 C37 D10 M69 E54 F10 N69 
M1006 A49 B10 L69 C37 D9 M69 E0 F10 
M1006 A49 B9 L69 C28 D9 M21 E40 F9 N35 
M1006 A49 B10 L69 C28 D1 M21 E40 F10 N35 
;Tick 5400, Time 54 sec
M73 P44 R1
M1006 A49 B19 L69 C42 D19 M69 E40 F19 N35 
M1006 A42 B10 L66 C18 D10 M24 E40 F1 N35 
M1006 A42 B10 L66 C0 D10 E0 F10 
M1006 A42 B9 L66 C30 D9 M10 E51 F9 N69 
M1006 A42 B10 L66 C30 D10 M10 E52 F10 N69 
M1006 A42 B10 L66 C13 D10 M69 E54 F10 N69 
M1006 A42 B9 L66 C0 D9 E0 F9 
M1006 A42 B10 L66 C30 D10 M10 E51 F10 N69 
M1006 A42 B10 L66 C30 D9 M10 E0 F10 
M1006 A42 B9 L66 C18 D9 M24 E56 F9 N49 
;Tick 5506, Time 55 sec
M73 P44 R1
M1006 A42 B10 L66 C18 D1 M24 E56 F10 N49 
M1006 A42 B19 L66 C35 D19 M59 E54 F19 N69 
M1006 A42 B10 L66 C13 D10 M69 E40 F10 N35 
M1006 A42 B10 L66 C0 D10 E40 F9 N35 
M1006 A42 B19 L66 C30 D19 M10 E39 F19 N52 
M1006 A49 B10 L69 C21 D10 M42 E44 F10 N38 
M1006 A49 B10 L69 C0 D10 E45 F10 N45 
M1006 A49 B9 L69 C37 D9 M69 E44 F9 N38 
;Tick 5603, Time 56 sec
M73 P45 R1
M1006 A49 B10 L69 C37 D10 M69 E45 F10 N45 
M1006 A49 B10 L69 C28 D10 M21 E44 F10 N38 
M1006 A49 B9 L69 C0 D9 E45 F9 N45 
M1006 A49 B10 L69 C33 D10 M45 E44 F10 N38 
M1006 A49 B9 L69 C33 D9 M45 E45 F10 N45 
M1006 A48 B4 L69 C20 D4 M28 E44 F4 N38 
M1006 A44 B5 L69 C20 D5 M28 E44 F5 N38 
M1006 A44 B5 L69 C20 D1 M28 E45 F5 N45 
M1006 A44 B5 L69 C0 D5 E45 F5 N45 
M1006 A44 B4 L69 C36 D4 M69 E48 F4 N31 
M1006 A44 B5 L69 C36 D5 M69 E48 F5 N31 
M1006 A44 B1 L69 C36 D1 M69 E48 F1 N31 
M1006 A44 B4 L69 C36 D4 M69 E49 F4 N31 
M1006 A44 B5 L69 C36 D5 M69 E49 F5 N31 
M1006 A44 B5 L69 C27 D5 M28 E51 F5 N69 
M1006 A44 B5 L69 C27 D5 M28 E51 F5 N69 
;Tick 5700, Time 57 sec
M73 P46 R1
M1006 A44 B4 L69 C0 D4 E52 F4 N69 
M1006 A44 B5 L69 C0 D5 E52 F5 N69 
M1006 A44 B1 L69 C0 D1 E52 F1 N69 
M1006 A44 B3 L69 C36 D4 M69 E54 F4 N69 
M1006 A44 B5 L69 C36 D5 M69 E54 F5 N69 
M1006 A44 B4 L69 C36 D4 M69 E56 F4 N49 
M1006 A44 B5 L69 C36 D5 M69 E56 F5 N49 
M1006 A0 B1 C36 D1 M69 E56 F1 N49 
M1006 A44 B10 L69 C25 D10 M35 E49 F10 N31 
M1006 A44 B9 L69 C0 D9 E44 F9 N38 
M1006 A44 B10 L69 C37 D10 M69 E40 F10 N35 
M1006 A44 B10 L69 C37 D9 M69 E44 F10 N38 
M1006 A44 B9 L69 C20 D9 M28 E49 F9 N31 
M1006 A44 B10 L69 C20 D1 M28 E44 F10 N38 
M1006 A44 B10 L69 C37 D10 M69 E40 F10 N35 
M1006 A44 B9 L69 C37 D9 M69 E44 F9 N38 
;Tick 5806, Time 58 sec
M73 P47 R1
M1006 A0 B10 C25 D10 M35 E49 F10 N31 
M1006 A0 B10 C0 D10 E44 F10 N38 
M1006 A0 B9 C37 D9 M69 E40 F9 N35 
M1006 A0 B10 C37 D10 M69 E44 F10 N38 
M1006 A0 B10 C20 D10 M28 E49 F10 N31 
M1006 A0 B10 C0 D10 E44 F10 N38 
M1006 A0 B9 C37 D9 M69 E40 F9 N35 
M1006 A0 B10 C37 D10 M69 E44 F10 N38 
M1006 A0 B10 C28 D10 M21 E47 F10 N45 
M1006 A0 B9 C0 D9 E44 F9 N38 
;Tick 5903, Time 59 sec
M73 P48 R1
M1006 A0 B10 C35 D10 M59 E40 F10 N35 
M1006 A0 B10 C35 D9 M59 E44 F10 N38 
M1006 A0 B9 C23 D9 M31 E47 F9 N45 
M1006 A0 B10 C23 D1 M31 E44 F10 N38 
M1006 A0 B10 C35 D10 M59 E40 F10 N35 
M1006 A0 B9 C35 D9 M59 E44 F9 N38 
M1006 A0 B10 C28 D10 M21 E47 F10 N45 
M1006 A0 B10 C0 D10 E44 F10 N38 
M1006 A0 B9 C35 D9 M59 E40 F9 N35 
M1006 A0 B10 C35 D10 M59 E44 F10 N38 
;Tick 6000, Time 60 sec
M73 P49 R1
M1006 A0 B10 C23 D10 M31 E47 F10 N45 
M1006 A0 B9 C0 D9 E44 F9 N38 
M1006 A0 B10 C35 D10 M59 E40 F10 N35 
M1006 A0 B10 C35 D9 M59 E44 F10 N38 
M1006 A0 B9 C23 D9 M31 E47 F9 N45 
M1006 A0 B10 C23 D1 M31 E42 F10 N38 
M1006 A0 B10 C35 D10 M59 E39 F10 N52 
M1006 A0 B9 C35 D9 M59 E42 F9 N38 
M1006 A0 B10 C18 D10 M24 E47 F10 N45 
M1006 A0 B10 C0 D10 E42 F10 N38 
M1006 A0 B9 C35 D9 M59 E39 F9 N52 
;Tick 6106, Time 61 sec
M73 P49 R1
M1006 A0 B10 C35 D10 M59 E42 F10 N38 
M1006 A0 B10 C23 D10 M31 E47 F10 N45 
M1006 A0 B9 C0 D9 E42 F9 N38 
M1006 A0 B10 C35 D10 M59 E39 F10 N52 
M1006 A0 B10 C35 D9 M59 E42 F10 N38 
M1006 A0 B10 C18 D10 M24 E47 F10 N45 
M1006 A0 B9 C0 D9 E42 F9 N38 
M1006 A0 B10 C35 D10 M59 E39 F10 N52 
M1006 A0 B10 C35 D9 M59 E42 F10 N38 
M1006 A0 B9 C21 D9 M42 E49 F9 N31 
;Tick 6203, Time 62 sec
M73 P50 R1
M1006 A0 B10 C21 D1 M42 E45 F10 N45 
M1006 A0 B10 C37 D10 M69 E40 F10 N35 
M1006 A0 B9 C37 D9 M69 E45 F9 N45 
M1006 A0 B10 C16 D10 M35 E49 F10 N31 
M1006 A0 B10 C0 D10 E45 F10 N45 
M1006 A0 B9 C37 D9 M69 E40 F9 N35 
M1006 A0 B10 C37 D10 M69 E45 F10 N45 
M1006 A0 B10 C20 D10 M28 E48 F10 N31 
M1006 A0 B9 C0 D9 E44 F9 N38 
M1006 A0 B10 C36 D10 M69 E39 F10 N52 
;Tick 6300, Time 63 sec
M73 P51 R0
M1006 A0 B10 C36 D9 M69 E44 F10 N38 
M1006 A0 B9 C15 D9 M38 E48 F9 N31 
M1006 A0 B10 C15 D1 M38 E44 F10 N38 
M1006 A0 B10 C36 D10 M69 E39 F10 N52 
M1006 A0 B9 C36 D9 M69 E44 F9 N38 
M1006 A0 B10 C25 D10 M35 E37 F10 N31 
M1006 A0 B10 C0 D10 E32 F10 N21 
M1006 A0 B9 C37 D9 M69 E28 F9 N21 
M1006 A0 B10 C37 D10 M69 E32 F10 N21 
M1006 A0 B10 C20 D10 M28 E37 F10 N31 
M1006 A0 B9 C0 D9 E32 F9 N21 
;Tick 6406, Time 64 sec
M73 P52 R0
M1006 A0 B10 C37 D10 M69 E28 F10 N21 
M1006 A0 B10 C37 D9 M69 E32 F10 N21 
M1006 A0 B9 C25 D9 M35 E37 F9 N31 
M1006 A0 B10 C25 D1 M35 E32 F10 N21 
M1006 A0 B10 C37 D10 M69 E28 F10 N21 
M1006 A0 B10 C37 D9 M69 E32 F10 N21 
M1006 A0 B9 C20 D9 M28 E37 F9 N31 
M1006 A0 B10 C20 D1 M28 E32 F10 N21 
M1006 A0 B10 C37 D10 M69 E28 F10 N21 
M1006 A0 B9 C37 D9 M69 E32 F9 N21 
;Tick 6503, Time 65 sec
M73 P53 R0
M1006 A0 B10 C28 D10 M21 E35 F10 N17 
M1006 A0 B10 C0 D10 E32 F10 N21 
M1006 A0 B9 C35 D9 M59 E28 F9 N21 
M1006 A0 B10 C35 D10 M59 E32 F10 N21 
M1006 A0 B10 C23 D10 M31 E35 F10 N17 
M1006 A0 B9 C0 D9 E32 F9 N21 
M1006 A0 B10 C35 D10 M59 E28 F10 N21 
M1006 A0 B10 C35 D9 M59 E32 F10 N21 
M1006 A0 B9 C28 D9 M21 E35 F9 N17 
M1006 A0 B10 C28 D1 M21 E32 F10 N21 
;Tick 6600, Time 66 sec
M73 P53 R0
M1006 A0 B10 C35 D10 M59 E28 F10 N21 
M1006 A0 B9 C35 D9 M59 E32 F9 N21 
M1006 A0 B10 C23 D10 M31 E35 F10 N17 
M1006 A0 B10 C0 D10 E32 F10 N21 
M1006 A0 B9 C35 D9 M59 E28 F9 N21 
M1006 A0 B10 C35 D10 M59 E32 F10 N21 
M1006 A0 B10 C23 D10 M31 E35 F10 N17 
M1006 A0 B9 C0 D9 E30 F9 N24 
M1006 A0 B10 C35 D10 M59 E27 F10 N14 
M1006 A0 B10 C35 D9 M59 E30 F10 N24 
M1006 A0 B9 C18 D9 M24 E35 F9 N17 
;Tick 6706, Time 67 sec
M73 P54 R0
M1006 A0 B10 C18 D1 M24 E30 F10 N24 
M1006 A0 B10 C35 D10 M59 E27 F10 N14 
M1006 A0 B9 C35 D9 M59 E30 F9 N24 
M1006 A0 B10 C23 D10 M31 E35 F10 N17 
M1006 A0 B10 C0 D10 E30 F10 N24 
M1006 A0 B10 C35 D10 M59 E27 F10 N14 
M1006 A0 B9 C35 D9 M59 E30 F9 N24 
M1006 A0 B10 C18 D10 M24 E35 F10 N17 
M1006 A0 B10 C0 D10 E30 F10 N24 
M1006 A0 B9 C35 D9 M59 E27 F9 N14 
;Tick 6803, Time 68 sec
M73 P55 R0
M1006 A0 B10 C35 D10 M59 E30 F10 N24 
M1006 A0 B10 C21 D10 M42 E37 F10 N31 
M1006 A0 B9 C0 D9 E33 F9 N17 
M1006 A0 B10 C37 D10 M69 E28 F10 N21 
M1006 A0 B10 C37 D9 M69 E33 F10 N17 
M1006 A0 B9 C16 D9 M35 E37 F9 N31 
M1006 A0 B10 C16 D1 M35 E33 F10 N17 
M1006 A0 B10 C37 D10 M69 E28 F10 N21 
M1006 A0 B9 C37 D9 M69 E33 F9 N17 
M1006 A0 B10 C20 D10 M28 E36 F10 N31 
;Tick 6900, Time 69 sec
M73 P56 R0
M1006 A0 B10 C0 D10 E32 F10 N21 
M1006 A0 B9 C36 D9 M69 E27 F9 N14 
M1006 A0 B10 C36 D10 M69 E32 F10 N21 
M1006 A0 B10 C15 D10 M38 E36 F10 N31 
M1006 A0 B9 C0 D9 E32 F9 N21 
M1006 A0 B10 C36 D10 M69 E27 F10 N14 
M1006 A0 B10 C36 D9 M69 E32 F10 N21 
M1006 A0 B9 C25 D9 M35 E61 F9 N69 
M1006 A0 B10 C25 D1 M35 E44 F10 N38 
M1006 A0 B10 C37 D10 M69 E40 F10 N35 
M1006 A0 B9 C37 D9 M69 E44 F9 N38 
;Tick 7006, Time 70 sec
M73 P57 R0
M1006 A0 B10 C20 D10 M28 E61 F10 N69 
M1006 A0 B10 C0 D10 E44 F10 N38 
M1006 A0 B9 C37 D9 M69 E40 F9 N35 
M1006 A0 B10 C37 D10 M69 E44 F10 N38 
M1006 A0 B10 C25 D10 M35 E61 F10 N69 
M1006 A0 B10 C0 D10 E44 F10 N38 
M1006 A0 B9 C37 D9 M69 E40 F9 N35 
M1006 A0 B10 C37 D10 M69 E44 F10 N38 
M1006 A0 B10 C20 D10 M28 E49 F10 N31 
M1006 A0 B9 C0 D9 E44 F9 N38 
;Tick 7103, Time 71 sec
M73 P58 R0
M1006 A0 B10 C37 D10 M69 E40 F10 N35 
M1006 A0 B10 C37 D9 M69 E44 F10 N38 
M1006 A0 B9 C28 D9 M21 E59 F9 N69 
M1006 A0 B10 C28 D1 M21 E44 F10 N38 
M1006 A0 B10 C35 D10 M59 E56 F10 N49 
M1006 A0 B9 C35 D9 M59 E54 F9 N69 
M1006 A0 B10 C23 D10 M31 E47 F10 N45 
M1006 A0 B10 C0 D10 E44 F10 N38 
M1006 A0 B9 C35 D9 M59 E40 F9 N35 
M1006 A0 B10 C35 D10 M59 E44 F10 N38 
;Tick 7200, Time 72 sec
M73 P58 R0
M1006 A0 B10 C28 D10 M21 E56 F10 N49 
M1006 A0 B9 C0 D9 E44 F9 N38 
M1006 A0 B10 C35 D10 M59 E40 F10 N35 
M1006 A0 B10 C35 D9 M59 E44 F10 N38 
M1006 A0 B9 C68 D9 M69 E47 F9 N45 
M1006 A0 B10 C68 D10 M69 E44 F10 N38 
M1006 A0 B10 C35 D10 M59 E40 F10 N35 
M1006 A0 B9 C35 D9 M59 E44 F9 N38 
M1006 A0 B10 C23 D10 M31 E59 F10 N69 
M1006 A0 B10 C0 D10 E42 F10 N38 
M1006 A0 B9 C35 D9 M59 E39 F9 N52 
;Tick 7306, Time 73 sec
M73 P59 R0
M1006 A0 B10 C35 D10 M59 E42 F10 N38 
M1006 A0 B10 C18 D10 M24 E47 F10 N45 
M1006 A0 B9 C0 D9 E42 F9 N38 
M1006 A0 B10 C35 D10 M59 E39 F10 N52 
M1006 A0 B10 C35 D9 M59 E42 F10 N38 
M1006 A0 B10 C23 D10 M31 E47 F10 N45 
M1006 A0 B9 C0 D9 E42 F9 N38 
M1006 A0 B10 C35 D10 M59 E54 F10 N69 
M1006 A0 B10 C35 D9 M59 E42 F10 N38 
M1006 A0 B9 C18 D9 M24 E52 F9 N69 
;Tick 7403, Time 74 sec
M73 P60 R0
M1006 A0 B10 C18 D1 M24 E42 F10 N38 
M1006 A0 B10 C35 D10 M59 E54 F10 N69 
M1006 A0 B9 C35 D9 M59 E42 F9 N38 
M1006 A0 B10 C21 D10 M42 E56 F10 N49 
M1006 A0 B10 C0 D10 E52 F10 N69 
M1006 A0 B9 C37 D9 M69 E40 F9 N35 
M1006 A0 B10 C37 D10 M69 E52 F10 N69 
M1006 A0 B10 C16 D10 M35 E49 F10 N31 
M1006 A0 B9 C0 D9 E45 F9 N45 
M1006 A0 B10 C37 D10 M69 E54 F10 N69 
;Tick 7500, Time 75 sec
M73 P61 R0
M1006 A0 B10 C37 D9 M69 E45 F10 N45 
M1006 A0 B9 C20 D9 M28 E52 F9 N69 
M1006 A0 B10 C20 D1 M28 E44 F10 N38 
M1006 A0 B10 C36 D10 M69 E39 F10 N52 
M1006 A0 B9 C36 D9 M69 E44 F9 N38 
M1006 A0 B10 C15 D10 M38 E51 F10 N69 
M1006 A0 B10 C0 D10 E44 F10 N38 
M1006 A0 B9 C36 D9 M69 E39 F9 N52 
M1006 A0 B10 C36 D10 M69 E44 F10 N38 
M1006 A0 B10 C25 D10 M35 E61 F10 N69 
M1006 A0 B9 C0 D9 E32 F9 N21 
;Tick 7606, Time 76 sec
M73 P62 R0
M1006 A0 B10 C37 D10 M69 E28 F10 N21 
M1006 A0 B10 C37 D9 M69 E32 F10 N21 
M1006 A0 B9 C20 D9 M28 E61 F9 N69 
M1006 A0 B10 C20 D1 M28 E32 F10 N21 
M1006 A0 B10 C37 D10 M69 E28 F10 N21 
M1006 A0 B10 C37 D9 M69 E32 F10 N21 
M1006 A0 B9 C25 D9 M35 E37 F9 N31 
M1006 A0 B10 C25 D1 M35 E32 F10 N21 
M1006 A0 B10 C37 D10 M69 E59 F10 N69 
M1006 A0 B9 C37 D9 M69 E32 F9 N21 
;Tick 7703, Time 77 sec
M73 P62 R0
M1006 A0 B10 C20 D10 M28 E37 F10 N31 
M1006 A0 B10 C0 D10 E32 F10 N21 
M1006 A0 B9 C37 D9 M69 E28 F9 N21 
M1006 A0 B10 C37 D10 M69 E32 F10 N21 
M1006 A0 B10 C28 D10 M21 E35 F10 N17 
M1006 A0 B9 C0 D9 E32 F9 N21 
M1006 A0 B10 C35 D10 M59 E56 F10 N49 
M1006 A0 B10 C35 D9 M59 E32 F10 N21 
M1006 A0 B9 C23 D9 M31 E35 F9 N17 
M1006 A0 B10 C23 D1 M31 E32 F10 N21 
;Tick 7800, Time 78 sec
M73 P63 R0
M1006 A0 B10 C35 D10 M59 E28 F10 N21 
M1006 A0 B9 C35 D9 M59 E32 F9 N21 
M1006 A0 B10 C28 D10 M21 E56 F10 N49 
M1006 A0 B10 C0 D10 E32 F10 N21 
M1006 A0 B9 C35 D9 M59 E28 F9 N21 
M1006 A0 B10 C35 D10 M59 E32 F10 N21 
M1006 A0 B10 C23 D10 M31 E35 F10 N17 
M1006 A0 B9 C0 D9 E32 F9 N21 
M1006 A0 B10 C35 D10 M59 E28 F10 N21 
M1006 A0 B10 C35 D9 M59 E32 F10 N21 
M1006 A0 B9 C23 D9 M31 E59 F9 N69 
;Tick 7906, Time 79 sec
M73 P64 R0
M1006 A0 B10 C23 D1 M31 E30 F10 N24 
M1006 A0 B10 C35 D10 M59 E27 F10 N14 
M1006 A0 B9 C35 D9 M59 E30 F9 N24 
M1006 A0 B10 C18 D10 M24 E59 F10 N69 
M1006 A0 B10 C0 D10 E30 F10 N24 
M1006 A0 B10 C35 D10 M59 E27 F10 N14 
M1006 A0 B9 C35 D9 M59 E30 F9 N24 
M1006 A0 B10 C23 D10 M31 E56 F10 N49 
M1006 A0 B10 C0 D10 E30 F10 N24 
M1006 A0 B9 C35 D9 M59 E54 F9 N69 
;Tick 8003, Time 80 sec
M73 P65 R0
M1006 A0 B10 C35 D10 M59 E30 F10 N24 
M1006 A0 B10 C18 D10 M24 E52 F10 N69 
M1006 A0 B9 C0 D9 E30 F9 N24 
M1006 A0 B10 C35 D10 M59 E54 F10 N69 
M1006 A0 B10 C35 D9 M59 E30 F10 N24 
M1006 A0 B9 C21 D9 M42 E37 F9 N31 
M1006 A0 B10 C21 D1 M42 E33 F10 N17 
M1006 A0 B10 C37 D10 M69 E28 F10 N21 
M1006 A0 B9 C37 D9 M69 E33 F9 N17 
M1006 A0 B10 C16 D10 M35 E37 F10 N31 
;Tick 8100, Time 81 sec
M73 P66 R0
M1006 A0 B10 C0 D10 E33 F10 N17 
M1006 A0 B9 C37 D9 M69 E28 F9 N21 
M1006 A0 B10 C37 D10 M69 E33 F10 N17 
M1006 A0 B10 C20 D10 M28 E52 F10 N69 
M1006 A0 B9 C0 D9 E32 F9 N21 
M1006 A0 B10 C36 D10 M69 E27 F10 N14 
M1006 A0 B10 C36 D9 M69 E32 F10 N21 
M1006 A0 B9 C15 D9 M38 E51 F9 N69 
M1006 A0 B10 C15 D1 M38 E32 F10 N21 
M1006 A0 B10 C36 D10 M69 E27 F10 N14 
M1006 A0 B9 C36 D9 M69 E32 F9 N21 
;Tick 8206, Time 82 sec
M73 P67 R0
M1006 A52 B10 L52 C28 D10 M21 E32 F1 N21 
M1006 A52 B10 L52 C0 D10 E0 F10 
M1006 A52 B9 L52 C37 D9 M69 E49 F9 N31 
M1006 A52 B10 L52 C37 D10 M69 E51 F10 N69 
M1006 A52 B10 L52 C23 D10 M31 E52 F10 N69 
M1006 A52 B10 L52 C0 D10 E0 F10 
M1006 A52 B9 L52 C40 D9 M69 E49 F9 N31 
M1006 A52 B10 L52 C40 D10 M69 E49 F1 N31 
M1006 A52 B10 L52 C28 D10 M21 E54 F10 N69 
M1006 A52 B9 L52 C0 D9 E54 F9 N69 
;Tick 8303, Time 83 sec
M73 P67 R0
M1006 A52 B20 L52 C40 D19 M69 E52 F19 N69 
M1006 A52 B9 L52 C23 D9 M31 E51 F9 N69 
M1006 A52 B10 L52 C23 D1 M31 E51 F10 N69 
M1006 A52 B19 L52 C37 D19 M69 E49 F19 N31 
M1006 A49 B10 L69 C21 D10 M42 E47 F10 N45 
M1006 A49 B10 L69 C0 D10 E47 F10 N45 
M1006 A49 B9 L69 C42 D9 M69 E47 F9 N45 
M1006 A49 B10 L69 C42 D10 M69 E45 F10 N45 
;Tick 8400, Time 84 sec
M73 P68 R0
M1006 A49 B10 L69 C28 D10 M21 E44 F10 N38 
M1006 A49 B9 L69 C0 D9 E0 F9 
M1006 A49 B10 L69 C37 D10 M69 E45 F10 N45 
M1006 A49 B10 L69 C37 D9 M69 E0 F10 
M1006 A49 B9 L69 C21 D9 M42 E47 F9 N45 
M1006 A49 B10 L69 C21 D1 M42 E47 F10 N45 
M1006 A49 B19 L69 C42 D19 M69 E47 F19 N45 
M1006 A49 B10 L69 C28 D10 M21 E42 F10 N38 
M1006 A49 B10 L69 C0 D10 E42 F10 N38 
M1006 A49 B19 L69 C42 D19 M69 E42 F19 N38 
;Tick 8516, Time 85 sec
M73 P69 R0
M1006 A42 B10 L66 C18 D10 M24 E0 F10 
M1006 A42 B9 L66 C0 D9 E0 F9 
M1006 A42 B10 L66 C30 D10 M10 E39 F10 N52 
M1006 A42 B10 L66 C30 D9 M10 E40 F10 N35 
M1006 A42 B10 L66 C13 D10 M69 E42 F10 N38 
M1006 A42 B9 L66 C0 D9 E0 F9 
M1006 A42 B10 L66 C30 D10 M10 E39 F10 N52 
M1006 A42 B10 L66 C30 D9 M10 E0 F10 
M1006 A42 B9 L66 C18 D9 M24 E44 F9 N38 
;Tick 8603, Time 86 sec
M73 P70 R0
M1006 A42 B10 L66 C18 D1 M24 E44 F10 N38 
M1006 A42 B19 L66 C35 D19 M59 E42 F19 N38 
M1006 A42 B10 L66 C13 D10 M69 E40 F10 N35 
M1006 A42 B10 L66 C0 D10 E40 F9 N35 
M1006 A42 B19 L66 C30 D19 M10 E39 F19 N52 
M1006 A49 B10 L69 C21 D10 M42 E40 F10 N35 
M1006 A49 B9 L69 C0 D9 E40 F9 N35 
M1006 A49 B20 L69 C37 D19 M69 E0 F20 
;Tick 8710, Time 87 sec
M73 P71 R0
M1006 A49 B9 L69 C28 D9 M21 E40 F9 N35 
M1006 A49 B10 L69 C28 D1 M21 E40 F10 N35 
M1006 A49 B19 L69 C33 D19 M45 E0 F19 
M1006 A44 B10 L69 C20 D10 M28 E39 F10 N52 
M1006 A44 B10 L69 C0 D10 E39 F10 N52 
M1006 A44 B19 L69 C32 D19 M45 E39 F19 N52 
M1006 A44 B4 L69 C27 D4 M28 E37 F4 N31 
M1006 A44 B5 L69 C27 D5 M28 E39 F4 N52 
M1006 A44 B1 L69 C27 D1 M28 E41 F1 N38 
M1006 A44 B3 L69 C0 D3 E41 F3 N38 
;Tick 8800, Time 88 sec
M73 P71 R0
M1006 A44 B4 L69 C0 D4 E42 F4 N38 
M1006 A44 B2 L69 C0 D2 E44 F2 N38 
M1006 A44 B2 L69 C32 D2 M45 E44 F2 N38 
M1006 A44 B5 L69 C32 D5 M45 E46 F4 N45 
M1006 A44 B4 L69 C32 D4 M45 E48 F4 N31 
M1006 A44 B4 L69 C32 D4 M45 E49 F4 N31 
M1006 A44 B4 L69 C32 D4 M45 E51 F4 N69 
M1006 A0 B1 C0 D1 E0 F1 
M1006 A52 B9 L52 C28 D9 M21 E52 F9 N69 
M1006 A52 B10 L52 C28 D1 M21 E52 F10 N69 
M1006 A52 B10 L52 C40 D10 M69 E49 F10 N31 
M1006 A52 B10 L52 C40 D9 M69 E51 F10 N69 
M1006 A52 B9 L52 C23 D9 M31 E52 F9 N69 
M1006 A52 B10 L52 C23 D1 M31 E52 F1 N69 
M1006 A52 B10 L52 C37 D10 M69 E49 F10 N31 
M1006 A52 B9 L52 C37 D9 M69 E0 F9 
;Tick 8903, Time 89 sec
M73 P72 R0
M1006 A52 B10 L52 C28 D10 M21 E54 F10 N69 
M1006 A52 B10 L52 C0 D10 E54 F9 N69 
M1006 A52 B19 L52 C40 D19 M69 E52 F19 N69 
M1006 A52 B10 L52 C23 D10 M31 E51 F10 N69 
M1006 A52 B9 L52 C0 D9 E51 F9 N69 
M1006 A52 B20 L52 C37 D19 M69 E49 F19 N31 
M1006 A49 B9 L69 C21 D9 M42 E47 F9 N45 
M1006 A49 B10 L69 C21 D1 M42 E45 F10 N45 
;Tick 9000, Time 90 sec
M73 P73 R0
M1006 A49 B10 L69 C42 D10 M69 E44 F10 N38 
M1006 A49 B9 L69 C42 D9 M69 E45 F9 N45 
M1006 A49 B10 L69 C28 D10 M21 E47 F10 N45 
M1006 A49 B10 L69 C0 D10 E0 F10 
M1006 A49 B9 L69 C42 D9 M69 E45 F9 N45 
M1006 A49 B10 L69 C42 D10 M69 E45 F1 N45 
M1006 A49 B10 L69 C21 D10 M42 E44 F10 N38 
M1006 A49 B9 L69 C0 D9 E44 F9 N38 
M1006 A49 B10 L69 C42 D10 M69 E42 F10 N38 
M1006 A49 B10 L69 C42 D9 M69 E0 F10 
M1006 A49 B9 L69 C28 D9 M21 E40 F9 N35 
;Tick 9106, Time 91 sec
M73 P74 R0
M1006 A49 B10 L69 C28 D1 M21 E40 F10 N35 
M1006 A49 B19 L69 C42 D19 M69 E40 F19 N35 
M1006 A47 B10 L69 C18 D10 M24 E40 F1 N35 
M1006 A47 B10 L69 C0 D10 E0 F10 
M1006 A47 B10 L69 C30 D10 M10 E39 F10 N52 
M1006 A47 B9 L69 C30 D9 M10 E40 F9 N35 
M1006 A47 B10 L69 C13 D10 M69 E42 F10 N38 
M1006 A47 B10 L69 C0 D10 E0 F10 
M1006 A47 B9 L69 C35 D9 M59 E39 F9 N52 
;Tick 9203, Time 92 sec
M73 P75 R0
M1006 A47 B10 L69 C35 D10 M59 E39 F1 N52 
M1006 A47 B10 L69 C18 D10 M24 E44 F10 N38 
M1006 A47 B9 L69 C0 D9 E44 F9 N38 
M1006 A47 B20 L69 C30 D19 M10 E42 F19 N38 
M1006 A47 B9 L69 C13 D9 M69 E40 F9 N35 
M1006 A47 B10 L69 C13 D1 M69 E40 F10 N35 
M1006 A47 B19 L69 C30 D19 M10 E39 F19 N52 
M1006 A44 B10 L69 C44 D10 M66 E39 F10 N52 
;Tick 9300, Time 93 sec
M73 P76 R0
M1006 A44 B10 L69 C44 D9 M66 E0 F10 
M1006 A44 B9 L69 C27 D9 M28 E39 F9 N52 
M1006 A44 B10 L69 C27 D1 M28 E40 F10 N35 
M1006 A44 B10 L69 C45 D10 M55 E39 F10 N52 
M1006 A44 B9 L69 C45 D9 M55 E0 F9 
M1006 A44 B10 L69 C24 D10 M35 E39 F10 N52 
M1006 A44 B10 L69 C0 D10 E40 F10 N35 
M1006 A44 B9 L69 C39 D9 M69 E39 F9 N52 
M1006 A44 B10 L69 C39 D10 M69 E39 F1 N52 
M1006 A44 B10 L69 C27 D10 M28 E39 F10 N52 
M1006 A44 B9 L69 C0 D9 E40 F9 N35 
;Tick 9406, Time 94 sec
M73 P76 R0
M1006 A44 B10 L69 C45 D10 M55 E39 F10 N52 
M1006 A44 B10 L69 C45 D9 M55 E0 F10 
M1006 A44 B9 L69 C24 D9 M35 E39 F9 N52 
M1006 A44 B10 L69 C24 D1 M35 E40 F10 N35 
M1006 A44 B10 L69 C39 D10 M69 E39 F10 N52 
M1006 A44 B10 L69 C39 D9 M69 E40 F10 N35 
M1006 A44 B9 L69 C40 D9 M69 E39 F9 N52 
M1006 A44 B10 L69 C40 D10 M69 E40 F10 N35 
M1006 A44 B6 L69 C44 D6 M66 E39 F6 N52 
M1006 A44 B4 L69 C44 D4 M66 E39 F4 N52 
M1006 A44 B9 L69 C44 D9 M66 E40 F9 N35 
;Tick 9503, Time 95 sec
M73 P77 R0
M1006 A44 B10 L69 C45 D10 M55 E39 F10 N52 
M1006 A44 B10 L69 C45 D9 M55 E40 F10 N35 
M1006 A44 B9 L69 C44 D9 M66 E39 F9 N52 
M1006 A44 B10 L69 C44 D10 M66 E40 F10 N35 
M1006 A44 B10 L69 C40 D10 M69 E39 F10 N52 
M1006 A44 B9 L69 C40 D9 M69 E40 F9 N35 
M1006 A44 B10 L69 C44 D10 M66 E39 F10 N52 
M1006 A44 B10 L69 C44 D9 M66 E40 F10 N35 
M1006 A44 B9 L69 C45 D9 M55 E39 F9 N52 
M1006 A44 B10 L69 C45 D10 M55 E40 F10 N35 
;Tick 9600, Time 96 sec
M73 P78 R0
M1006 A44 B10 L69 C68 D10 M69 E39 F10 N52 
M1006 A44 B9 L69 C68 D9 M69 E45 F9 N45 
M1006 A44 B10 L69 C68 D10 M69 E44 F10 N38 
M1006 A44 B10 L69 C68 D10 M69 E40 F10 N35 
M1006 A44 B9 L69 C68 D9 M69 E39 F9 N52 
M1006 A44 B10 L69 C68 D10 M69 E45 F10 N45 
M1006 A44 B10 L69 C68 D10 M69 E44 F10 N38 
M1006 A44 B9 L69 C68 D9 M69 E45 F9 N45 
M1006 A44 B5 L69 C39 D5 M69 E32 F4 N21 
M1006 A44 B5 L69 C39 D5 M69 E34 F5 N24 
M1006 A44 B3 L69 C45 D3 M55 E36 F3 N31 
M1006 A44 B1 L69 C45 D1 M55 E36 F1 N31 
M1006 A44 B5 L69 C45 D5 M55 E37 F4 N31 
M1006 A44 B1 L69 C45 D1 M55 E39 F1 N52 
M1006 A44 B3 L69 C39 D3 M69 E39 F3 N52 
;Tick 9700, Time 97 sec
M73 P79 R0
M1006 A44 B5 L69 C39 D5 M69 E41 F5 N38 
M1006 A44 B1 L69 C39 D1 M69 E42 F1 N38 
M1006 A44 B3 L69 C45 D3 M55 E42 F3 N38 
M1006 A44 B5 L69 C45 D5 M55 E44 F4 N38 
M1006 A44 B2 L69 C45 D2 M55 E46 F2 N45 
M1006 A44 B3 L69 C39 D3 M69 E46 F3 N45 
M1006 A44 B4 L69 C39 D4 M69 E48 F4 N31 
M1006 A44 B3 L69 C39 D3 M69 E49 F3 N31 
M1006 A44 B1 L69 C40 D1 M69 E49 F1 N31 
M1006 A44 B5 L69 C40 D5 M69 E51 F5 N69 
M1006 A44 B3 L69 C40 D3 M69 E53 F3 N69 
M1006 A44 B2 L69 C39 D2 M69 E53 F1 N69 
M1006 A44 B4 L69 C39 D4 M69 E54 F4 N69 
M1006 A44 B4 L69 C39 D4 M69 E56 F4 N49 
M1006 A44 B1 L69 C40 D1 M69 E0 F1 
M1006 A44 B4 L69 C40 D4 M69 E58 F4 N61 
M1006 A44 B5 L69 C40 D5 M69 E60 F4 N69 
M1006 A0 B10 C25 D10 M35 E73 F10 
M1006 A0 B9 C0 D9 E73 F9 
M1006 A0 B20 C32 D19 M45 E73 F20 
M1006 A0 B9 C20 D9 M28 E61 F9 N69 
;Tick 9803, Time 98 sec
M73 P80 R0
M1006 A0 B10 C20 D1 M28 E61 F10 N69 
M1006 A0 B10 C37 D10 M69 E61 F10 N69 
M1006 A0 B9 C37 D9 M69 E59 F9 N69 
M1006 A0 B10 C25 D10 M35 E73 F10 
M1006 A0 B10 C0 D10 E0 F10 
M1006 A0 B9 C37 D9 M69 E71 F9 N69 
M1006 A0 B10 C37 D10 M69 E71 F1 N69 
M1006 A0 B10 C20 D10 M28 E69 F10 N69 
M1006 A0 B9 C0 D9 E0 F9 
M1006 A0 B10 C32 D10 M45 E68 F10 N69 
;Tick 9900, Time 99 sec
M73 P80 R0
M1006 A0 B10 C32 D9 M45 E0 F10 
M1006 A0 B9 C28 D9 M21 E59 F9 N69 
M1006 A0 B10 C28 D1 M21 E69 F10 N69 
M1006 A0 B10 C35 D10 M59 E68 F10 N69 
M1006 A0 B9 C35 D9 M59 E66 F9 N69 
M1006 A0 B10 C23 D10 M31 E52 F10 N69 
M1006 A0 B10 C0 D10 E0 F10 
M1006 A0 B9 C32 D9 M45 E54 F9 N69 
M1006 A0 B10 C32 D10 M45 E54 F1 N69 
M1006 A0 B10 C28 D10 M21 E68 F10 N69 
M1006 A0 B9 C0 D9 E68 F9 N69 
;Tick 10006, Time 100 sec
M73 P81 R0
M1006 A0 B20 C32 D19 M45 E68 F20 N69 
M1006 A0 B9 C23 D9 M31 E68 F9 N69 
M1006 A0 B10 C23 D1 M31 E68 F10 N69 
M1006 A0 B20 C35 D19 M59 E68 F19 N69 
M1006 A0 B9 C23 D9 M31 E59 F9 N69 
M1006 A0 B10 C23 D1 M31 E59 F10 N69 
M1006 A0 B19 C30 D19 M10 E59 F19 N69 
;Tick 10103, Time 101 sec
M73 P82 R0
M1006 A0 B10 C18 D10 M24 E59 F10 N69 
M1006 A0 B10 C0 D10 E59 F10 N69 
M1006 A0 B9 C30 D9 M10 E59 F9 N69 
M1006 A0 B10 C30 D10 M10 E57 F10 N56 
M1006 A0 B10 C23 D10 M31 E56 F10 N49 
M1006 A0 B9 C0 D9 E56 F9 N49 
M1006 A0 B20 C30 D19 M10 E54 F19 N69 
M1006 A0 B9 C18 D9 M24 E64 F9 N69 
M1006 A0 B10 C18 D1 M24 E64 F10 N69 
;Tick 10200, Time 102 sec
M73 P83 R0
M1006 A0 B19 C35 D19 M59 E54 F19 N69 
M1006 A0 B10 C21 D10 M42 E56 F10 N49 
M1006 A0 B10 C0 D10 E64 F10 N69 
M1006 A0 B9 C33 D9 M45 E49 F9 N31 
M1006 A0 B10 C33 D10 M45 E52 F10 N69 
M1006 A0 B10 C16 D10 M35 E56 F10 N49 
M1006 A0 B9 C0 D9 E0 F9 
M1006 A0 B10 C37 D10 M69 E54 F10 N69 
M1006 A0 B10 C37 D9 M69 E0 F10 
M1006 A0 B9 C20 D9 M28 E64 F9 N69 
;Tick 10306, Time 103 sec
M73 P84 R0
M1006 A0 B10 C20 D1 M28 E64 F10 N69 
M1006 A0 B19 C32 D19 M45 E64 F19 N69 
M1006 A0 B10 C15 D10 M38 E63 F10 N69 
M1006 A0 B10 C0 D10 E63 F10 N69 
M1006 A0 B19 C36 D19 M69 E63 F19 N69 
M1006 A0 B10 C25 D10 M35 E73 F10 
M1006 A0 B10 C0 D10 E73 F10 
M1006 A0 B19 C37 D19 M69 E73 F19 
;Tick 10413, Time 104 sec
M73 P85 R0
M1006 A0 B10 C20 D10 M28 E61 F10 N69 
M1006 A0 B9 C0 D9 E61 F9 N69 
M1006 A0 B10 C32 D10 M45 E61 F10 N69 
M1006 A0 B10 C32 D9 M45 E71 F10 N69 
M1006 A0 B9 C25 D9 M35 E61 F9 N69 
M1006 A0 B10 C25 D1 M35 E61 F1 N69 
M1006 A0 B10 C32 D10 M45 E71 F10 N69 
M1006 A0 B9 C32 D9 M45 E0 F9 
M1006 A0 B10 C20 D10 M28 E57 F10 N56 
;Tick 10500, Time 105 sec
M73 P85 R0
M1006 A0 B10 C0 D10 E0 F10 
M1006 A0 B9 C32 D9 M45 E68 F9 N69 
M1006 A0 B10 C32 D10 M45 E68 F1 N69 
M1006 A0 B10 C28 D10 M21 E59 F10 N69 
M1006 A0 B9 C0 D9 E57 F9 N56 
M1006 A0 B10 C35 D10 M59 E68 F10 N69 
M1006 A0 B10 C35 D9 M59 E66 F10 N69 
M1006 A0 B9 C23 D9 M31 E64 F9 N69 
M1006 A0 B10 C23 D1 M31 E64 F1 N69 
M1006 A0 B10 C32 D10 M45 E54 F10 N69 
M1006 A0 B9 C32 D9 M45 E0 F9 
;Tick 10606, Time 106 sec
M73 P86 R0
M1006 A0 B10 C28 D10 M21 E56 F10 N49 
M1006 A0 B10 C0 D10 E56 F10 N49 
M1006 A0 B19 C32 D19 M45 E56 F19 N49 
M1006 A0 B10 C23 D10 M31 E56 F10 N49 
M1006 A0 B10 C0 D10 E56 F10 N49 
M1006 A0 B19 C32 D19 M45 E56 F18 N49 
M1006 A0 B10 C23 D10 M31 E71 F10 N69 
M1006 A0 B9 C0 D9 E71 F9 N69 
;Tick 10703, Time 107 sec
M73 P87 R0
M1006 A0 B20 C35 D19 M59 E71 F20 N69 
M1006 A0 B9 C18 D9 M24 E71 F9 N69 
M1006 A0 B10 C18 D1 M24 E71 F10 N69 
M1006 A0 B10 C30 D10 M10 E71 F10 N69 
M1006 A0 B9 C30 D9 M10 E57 F9 N56 
M1006 A0 B10 C23 D10 M31 E68 F10 N69 
M1006 A0 B10 C0 D10 E68 F9 N69 
M1006 A0 B19 C30 D19 M10 E54 F19 N69 
;Tick 10800, Time 108 sec
M73 P88 R0
M1006 A0 B10 C18 D10 M24 E52 F10 N69 
M1006 A0 B9 C0 D9 E52 F9 N69 
M1006 A0 B20 C30 D19 M10 E54 F19 N69 
M1006 A0 B9 C21 D9 M42 E56 F9 N49 
M1006 A0 B10 C21 D1 M42 E52 F10 N69 
M1006 A0 B10 C33 D10 M45 E61 F10 N69 
M1006 A0 B9 C33 D9 M45 E52 F9 N69 
M1006 A0 B10 C16 D10 M35 E68 F10 N69 
M1006 A0 B10 C0 D10 E0 F10 
M1006 A0 B9 C37 D9 M69 E54 F9 N69 
;Tick 10906, Time 109 sec
M73 P89 R0
M1006 A0 B10 C37 D10 M69 E54 F1 N69 
M1006 A0 B10 C20 D10 M28 E64 F10 N69 
M1006 A0 B9 C0 D9 E64 F9 N69 
M1006 A0 B20 C32 D19 M45 E64 F20 N69 
M1006 A0 B10 C15 D10 M38 E63 F10 N69 
M1006 A0 B9 C0 D9 E63 F9 N69 
M1006 A0 B20 C32 D19 M45 E63 F20 N69 
M1006 A28 B9 L9 C45 D9 M55 E40 F9 N35 
;Tick 11003, Time 110 sec
M73 P89 R0
M1006 A28 B1 L9 C40 D10 M69 E40 F10 N35 
M1006 A37 B10 L53 C37 D10 M69 E61 F10 N69 
M1006 A37 B9 L53 C40 D9 M69 E63 F9 N69 
M1006 A23 B10 L28 C45 D10 M55 E64 F10 N69 
M1006 A0 B10 C40 D10 M69 E0 F10 
M1006 A40 B9 L59 C37 D9 M69 E61 F9 N69 
M1006 A40 B10 L59 C40 D10 M69 E61 F1 N69 
M1006 A28 B10 L9 C45 D10 M55 E54 F10 N69 
M1006 A0 B9 C40 D9 M69 E54 F9 N69 
M1006 A37 B10 L53 C37 D10 M69 E64 F10 N69 
;Tick 11100, Time 111 sec
M73 P90 R0
M1006 A37 B9 L53 C40 D10 M69 E64 F9 N69 
M1006 A23 B9 L28 C45 D9 M55 E51 F9 N69 
M1006 A23 B1 L28 C40 D10 M69 E51 F10 N69 
M1006 A40 B10 L59 C37 D10 M69 E61 F10 N69 
M1006 A40 B9 L59 C40 D9 M69 E61 F9 N69 
M1006 A21 B10 L42 C45 D10 M55 E42 F10 N38 
M1006 A0 B10 C42 D10 M69 E42 F10 N38 
M1006 A42 B9 L66 C37 D9 M69 E42 F9 N38 
M1006 A42 B10 L66 C42 D10 M69 E45 F10 N45 
M1006 A28 B10 L9 C45 D10 M55 E56 F10 N49 
M1006 A0 B9 C42 D9 M69 E0 F9 
;Tick 11206, Time 112 sec
M73 P91 R0
M1006 A42 B10 L66 C37 D10 M69 E57 F10 N56 
M1006 A42 B9 L66 C42 D10 M69 E0 F10 
M1006 A21 B9 L42 C45 D9 M55 E47 F9 N45 
M1006 A21 B1 L42 C42 D10 M69 E47 F10 N45 
M1006 A37 B10 L53 C37 D10 M69 E47 F10 N45 
M1006 A37 B9 L53 C42 D10 M69 E47 F10 N45 
M1006 A28 B9 L9 C45 D9 M55 E42 F9 N38 
M1006 A28 B1 L9 C42 D10 M69 E42 F10 N38 
M1006 A42 B10 L66 C37 D10 M69 E42 F10 N38 
M1006 A42 B9 L66 C42 D9 M69 E42 F9 N38 
;Tick 11303, Time 113 sec
M73 P92 R0
M1006 A18 B10 L69 C47 D10 M47 E30 F10 N24 
M1006 A0 B10 C42 D10 M69 E30 F10 N24 
M1006 A30 B9 L17 C39 D9 M69 E51 F9 N69 
M1006 A30 B10 L17 C42 D10 M69 E52 F10 N69 
M1006 A13 B10 L69 C47 D10 M47 E54 F10 N69 
M1006 A0 B9 C42 D9 M69 E0 F9 
M1006 A35 B10 L42 C39 D10 M69 E51 F10 N69 
M1006 A35 B9 L42 C42 D10 M69 E0 F10 
M1006 A18 B9 L69 C47 D9 M47 E44 F9 N38 
M1006 A18 B1 L69 C42 D10 M69 E44 F10 N38 
;Tick 11400, Time 114 sec
M73 P93 R0
M1006 A35 B10 L42 C39 D10 M69 E42 F10 N38 
M1006 A35 B9 L42 C42 D9 M69 E42 F9 N38 
M1006 A13 B10 L69 C47 D10 M47 E40 F10 N35 
M1006 A0 B10 C42 D10 M69 E40 F9 N35 
M1006 A30 B9 L17 C39 D9 M69 E39 F9 N52 
M1006 A30 B10 L17 C42 D10 M69 E39 F10 N52 
M1006 A21 B10 L42 C49 D10 M52 E33 F10 N17 
M1006 A0 B9 C45 D9 M55 E33 F9 N17 
M1006 A37 B10 L53 C40 D10 M69 E33 F10 N17 
M1006 A37 B9 L53 C45 D10 M55 E33 F10 N17 
M1006 A28 B9 L9 C49 D9 M52 E52 F9 N69 
;Tick 11506, Time 115 sec
M73 P94 R0
M1006 A28 B1 L9 C45 D10 M55 E52 F10 N69 
M1006 A37 B10 L53 C40 D10 M69 E0 F10 
M1006 A37 B9 L53 C45 D9 M55 E0 F9 
M1006 A20 B10 L56 C48 D10 M49 E36 F10 N31 
M1006 A0 B10 C44 D10 M66 E36 F10 N31 
M1006 A36 B10 L45 C39 D10 M69 E36 F10 N31 
M1006 A36 B9 L45 C44 D9 M66 E36 F9 N31 
M1006 A27 B4 L10 C48 D4 M49 E49 F4 N31 
M1006 A27 B5 L10 C48 D5 M49 E51 F4 N69 
M1006 A27 B1 L10 C48 D1 M49 E41 F1 N38 
M1006 A0 B3 C44 D3 M66 E41 F3 N38 
M1006 A0 B4 C44 D4 M66 E42 F4 N38 
M1006 A0 B3 C44 D3 M66 E44 F3 N38 
M1006 A36 B1 L45 C39 D1 M69 E44 F1 N38 
M1006 A36 B5 L45 C39 D5 M69 E46 F4 N45 
;Tick 11600, Time 116 sec
M73 P94 R0
M1006 A36 B3 L45 C39 D3 M69 E48 F3 N31 
M1006 A36 B1 L45 C44 D1 M66 E48 F1 N31 
M1006 A36 B4 L45 C44 D4 M66 E61 F4 N69 
M1006 A36 B4 L45 C44 D4 M66 E63 F4 N69 
M1006 A36 B1 L45 C44 D1 M66 E0 F1 
M1006 A28 B10 L9 C45 D10 M55 E37 F10 N31 
M1006 A0 B9 C40 D9 M69 E37 F9 N31 
M1006 A40 B10 L59 C37 D10 M69 E61 F10 N69 
M1006 A40 B9 L59 C40 D10 M69 E51 F10 N69 
M1006 A23 B9 L28 C45 D9 M55 E64 F9 N69 
M1006 A23 B1 L28 C40 D10 M69 E64 F1 N69 
M1006 A40 B10 L59 C37 D10 M69 E49 F10 N31 
M1006 A40 B9 L59 C40 D9 M69 E0 F9 
M1006 A28 B10 L9 C45 D10 M55 E54 F10 N69 
;Tick 11700, Time 117 sec
M73 P95 R0
M1006 A0 B10 C40 D10 M69 E54 F9 N69 
M1006 A40 B9 L59 C37 D9 M69 E52 F9 N69 
M1006 A40 B10 L59 C40 D10 M69 E52 F10 N69 
M1006 A23 B10 L28 C45 D10 M55 E63 F10 N69 
M1006 A0 B9 C40 D9 M69 E63 F9 N69 
M1006 A40 B10 L59 C37 D10 M69 E61 F10 N69 
M1006 A40 B9 L59 C40 D10 M69 E61 F9 N69 
M1006 A21 B9 L42 C45 D9 M55 E42 F9 N38 
M1006 A21 B1 L42 C42 D10 M69 E45 F10 N45 
M1006 A42 B10 L66 C37 D10 M69 E44 F10 N38 
M1006 A42 B9 L66 C42 D9 M69 E45 F9 N45 
;Tick 11806, Time 118 sec
M73 P96 R0
M1006 A28 B10 L9 C45 D10 M55 E59 F10 N69 
M1006 A0 B10 C42 D10 M69 E0 F10 
M1006 A42 B9 L66 C37 D9 M69 E57 F9 N56 
M1006 A42 B10 L66 C42 D10 M69 E57 F1 N56 
M1006 A21 B10 L42 C45 D10 M55 E56 F10 N49 
M1006 A0 B10 C42 D10 M69 E56 F9 N49 
M1006 A37 B9 L53 C37 D9 M69 E54 F9 N69 
M1006 A37 B10 L53 C42 D10 M69 E54 F1 N69 
M1006 A28 B10 L9 C45 D10 M55 E52 F10 N69 
M1006 A0 B9 C42 D9 M69 E52 F9 N69 
;Tick 11903, Time 119 sec
M73 P97 R0
M1006 A37 B10 L53 C37 D10 M69 E52 F10 N69 
M1006 A37 B9 L53 C42 D10 M69 E52 F10 N69 
M1006 A18 B9 L69 C47 D9 M47 E35 F9 N17 
M1006 A18 B1 L69 C42 D10 M69 E35 F10 N17 
M1006 A35 B10 L42 C39 D10 M69 E39 F10 N52 
M1006 A35 B9 L42 C42 D9 M69 E40 F9 N35 
M1006 A13 B10 L69 C47 D10 M47 E54 F10 N69 
M1006 A0 B10 C42 D10 M69 E0 F10 
M1006 A30 B9 L17 C39 D9 M69 E51 F9 N69 
M1006 A30 B10 L17 C42 D10 M69 E51 F1 N69 
;Tick 12000, Time 120 sec
M73 P98 R0
M1006 A18 B10 L69 C47 D10 M47 E56 F10 N49 
M1006 A0 B9 C42 D9 M69 E56 F9 N49 
M1006 A30 B10 L17 C39 D10 M69 E42 F10 N38 
M1006 A30 B9 L17 C42 D10 M69 E42 F9 N38 
M1006 A13 B9 L69 C47 D9 M47 E52 F9 N69 
M1006 A13 B1 L69 C42 D10 M69 E52 F10 N69 
M1006 A35 B10 L42 C39 D10 M69 E39 F10 N52 
M1006 A35 B9 L42 C42 D9 M69 E39 F9 N52 
M1006 A0 B10 C48 D10 M49 E48 F10 N31 
M1006 A0 B10 C44 D10 M66 E48 F9 N31 
M1006 A0 B9 C39 D9 M69 E0 F9 
;Tick 12106, Time 121 sec
M73 P98 R0
M1006 A0 B10 C44 D10 M66 E0 F10 
M1006 A0 B10 C48 D10 M49 E37 F10 N31 
M1006 A0 B9 C44 D9 M66 E37 F9 N31 
M1006 A0 B10 C39 D10 M69 E0 F10 
M1006 A0 B10 C44 D10 M66 E0 F10 
M1006 A0 B10 C48 D10 M49 E51 F10 N69 
M1006 A0 B9 C44 D9 M66 E51 F9 N69 
M1006 A0 B10 C39 D10 M69 E0 F10 
M1006 A0 B10 C44 D10 M66 E0 F10 
M1006 A0 B9 C48 D9 M49 E52 F9 N69 
;Tick 12203, Time 122 sec
M73 P99 R0
M1006 A0 B10 C44 D10 M66 E52 F10 N69 
M1006 A0 B10 C39 D10 M69 E0 F10 
M1006 A0 B9 C44 D9 M66 E0 F9 
M1006 W
;=====printer finish  sound=========

;M17 X0.8 Y0.8 Z0.5 ; lower motor current to 45% power
M400
M18 X Y Z
